X:31
T: Der Maedchenmoerder (Halewijn - Ulinger)
N: Q0041M
O: Mitteleuropa, Deutschland (BRD) , Rheinprovinz, Niederrhein
N: "Loser Zusammenhang zur Ballade"
R: Ballade, Verfuehrung, Mord, Mordversuch bzw. Rache
M: 3/4
L: 1/8
K: A
=G=cd | e2d=fed | =c3
=Gcd | e2d=fed | =c3
BAB | =cAdecB | A3
GAB | =cAdecB | A2z

@@@ Tune index: 767
